src/assets/svgs/contact-phone.svg

<svg xmlns="http://www.w3.org/2000/svg" width="24" height="25" viewBox="0 0 24 25" fill="none">
<path d="M19.44 13.5C19.22 13.5 18.99 13.43 18.77 13.38C18.3245 13.2818 17.8866 13.1515 17.46 12.99C16.9961 12.8212 16.4861 12.83 16.0283 13.0146C15.5704 13.1992 15.1971 13.5466 14.98 13.99L14.76 14.44C13.786 13.8982 12.891 13.2252 12.1 12.44C11.3147 11.649 10.6418 10.754 10.1 9.78L10.52 9.5C10.9633 9.28291 11.3108 8.90953 11.4954 8.45169C11.68 7.99385 11.6887 7.48391 11.52 7.02C11.3612 6.59242 11.2309 6.1548 11.13 5.71C11.08 5.49 11.04 5.26 11.01 5.03C10.8885 4.32562 10.5196 3.68774 9.9696 3.23124C9.4196 2.77473 8.72467 2.52961 8.00998 2.54H5.00998C4.57901 2.53595 4.15223 2.62481 3.75869 2.80053C3.36515 2.97625 3.01409 3.23469 2.72941 3.55828C2.44473 3.88187 2.23311 4.26299 2.10897 4.67571C1.98482 5.08843 1.95106 5.52306 2.00998 5.95C2.54272 10.1394 4.45601 14.0319 7.44763 17.0126C10.4393 19.9934 14.3387 21.8925 18.53 22.41H18.91C19.6474 22.4111 20.3594 22.1405 20.91 21.65C21.2263 21.367 21.4791 21.0202 21.6514 20.6323C21.8238 20.2445 21.9119 19.8244 21.91 19.4V16.4C21.8977 15.7054 21.6448 15.0366 21.1943 14.5077C20.7439 13.9788 20.1238 13.6226 19.44 13.5V13.5ZM19.94 19.5C19.9398 19.642 19.9094 19.7823 19.8508 19.9116C19.7921 20.0409 19.7066 20.1563 19.6 20.25C19.4886 20.347 19.358 20.4194 19.2167 20.4625C19.0754 20.5056 18.9266 20.5184 18.78 20.5C15.0349 20.0198 11.5562 18.3065 8.89269 15.6303C6.22917 12.9541 4.53239 9.46733 4.06998 5.72C4.05406 5.57352 4.06801 5.42533 4.11098 5.28439C4.15395 5.14345 4.22505 5.01269 4.31998 4.9C4.41369 4.79333 4.52904 4.70784 4.65836 4.64921C4.78767 4.59059 4.92799 4.56018 5.06998 4.56H8.06998C8.30253 4.55482 8.5296 4.63088 8.71212 4.77507C8.89464 4.91926 9.02119 5.12257 9.06998 5.35C9.10998 5.62333 9.15998 5.89333 9.21998 6.16C9.3355 6.68714 9.48924 7.20518 9.67998 7.71L8.27998 8.36C8.16028 8.41492 8.0526 8.49294 7.96314 8.58959C7.87367 8.68624 7.80418 8.79961 7.75865 8.92319C7.71312 9.04677 7.69245 9.17813 7.69783 9.30972C7.7032 9.44131 7.73452 9.57054 7.78998 9.69C9.22918 12.7728 11.7072 15.2508 14.79 16.69C15.0334 16.79 15.3065 16.79 15.55 16.69C15.6747 16.6454 15.7893 16.5765 15.8871 16.4872C15.985 16.3979 16.0641 16.2901 16.12 16.17L16.74 14.77C17.2569 14.9549 17.7846 15.1085 18.32 15.23C18.5866 15.29 18.8566 15.34 19.13 15.38C19.3574 15.4288 19.5607 15.5553 19.7049 15.7379C19.8491 15.9204 19.9252 16.1475 19.92 16.38L19.94 19.5Z" fill="#767676"/>
</svg>

<svg xmlns="http://www.w3.org/2000/svg" width="24" height="25" fill="none"><path d="M19.44 13.5c-.22 0-.45-.07-.67-.12a9.439 9.439 0 0 1-1.31-.39 2 2 0 0 0-2.48 1l-.22.45a12.18 12.18 0 0 1-2.66-2 12.177 12.177 0 0 1-2-2.66l.42-.28a2 2 0 0 0 1-2.48 10.32 10.32 0 0 1-.39-1.31c-.05-.22-.09-.45-.12-.68a3 3 0 0 0-3-2.49h-3a3 3 0 0 0-3 3.41 19 19 0 0 0 16.52 16.46h.38a3 3 0 0 0 2.741-1.778 3 3 0 0 0 .259-1.232v-3a3 3 0 0 0-2.47-2.9Zm.5 6a1 1 0 0 1-.723.962c-.142.044-.29.056-.437.038A17 17 0 0 1 4.07 5.72a1.09 1.09 0 0 1 .25-.82 1 1 0 0 1 .75-.34h3a1 1 0 0 1 1 .79c.04.273.09.543.15.81.115.527.27 1.045.46 1.55l-1.4.65a1 1 0 0 0-.49 1.33 14.49 14.49 0 0 0 7 7 1 1 0 0 0 .76 0 .999.999 0 0 0 .57-.52l.62-1.4a13.68 13.68 0 0 0 1.58.46c.267.06.537.11.81.15a1 1 0 0 1 .79 1l.02 3.12Z" fill="#767676"/></svg>
